X: 06004
T: B & G REEL
C: Bob McQuillen 8 Feb 82
B: Bob's Note Book 6 #4
%R: reel
Z: 2021 John Chambers <jc:trillian.mit.edu>
M: C	% The booklet has no time signature.
L: 1/8
K: D
de \
| fafd edBd | AFEF D2DB, | A,B,DE FEDB, | A,B,DE FEEA |
| fafd edBd | AFEF DEDB, | A,B,DE FABA | F2D2 D2 :|
|: dc \
| BABc dcBA | FABc dBBA | FABc defa | fgfe dBBA |
| FABc dcBA | BABc dBBc | dcde fafe | dBcA B2 :|
%%begintext align
%% This tune is for
%% Bozeman - Gibson Organ Builders, where
%% Pete Colby works, in Deerfirld, N.H.
%%endtext

%%sep 1 1 500

%%sep 1 1 500

